src/assets/svg/skills/wordpress.svg

<svg width="256" height="255" viewBox="0 0 256 255" fill="none" xmlns="http://www.w3.org/2000/svg">
<g clip-path="url(#clip0)">
<path d="M18.124 127.5C18.124 170.796 43.2848 208.211 79.77 225.942L27.5939 82.9856C21.5248 96.589 18.124 111.643 18.124 127.5ZM201.345 121.981C201.345 108.463 196.489 99.1011 192.325 91.8145C186.78 82.8046 181.583 75.1745 181.583 66.1646C181.583 56.1098 189.209 46.7502 199.951 46.7502C200.436 46.7502 200.895 46.8105 201.368 46.8376C181.908 29.0092 155.981 18.124 127.505 18.124C89.292 18.124 55.6727 37.7298 36.1147 67.4258C38.681 67.5028 41.0994 67.5569 43.1537 67.5569C54.5946 67.5569 72.3044 66.1687 72.3044 66.1687C78.2007 65.8211 78.8959 74.4814 73.0058 75.1787C73.0058 75.1787 67.0803 75.8759 60.4868 76.2214L100.319 194.699L124.256 122.909L107.214 76.2172C101.324 75.8717 95.744 75.1745 95.744 75.1745C89.8498 74.829 90.5407 65.817 96.435 66.1646C96.435 66.1646 114.499 67.5528 125.246 67.5528C136.685 67.5528 154.397 66.1646 154.397 66.1646C160.298 65.817 160.991 74.4773 155.099 75.1745C155.099 75.1745 149.161 75.8717 142.58 76.2172L182.108 193.798L193.018 157.34C197.746 142.211 201.345 131.345 201.345 121.981ZM129.424 137.068L96.6057 232.431C106.404 235.312 116.767 236.887 127.505 236.887C140.242 236.887 152.457 234.685 163.828 230.687C163.534 230.219 163.268 229.721 163.049 229.18L129.424 137.068ZM223.482 75.0226C223.952 78.5067 224.219 82.2468 224.219 86.2699C224.219 97.3695 222.146 109.847 215.902 125.448L182.491 222.048C215.009 203.085 236.881 167.855 236.881 127.503C236.883 108.486 232.025 90.6032 223.482 75.0226ZM127.505 0C57.2004 0 0 57.1962 0 127.5C0 197.813 57.2004 255.007 127.505 255.007C197.807 255.007 255.016 197.813 255.016 127.5C255.013 57.1962 197.807 0 127.505 0ZM127.505 249.163C60.4243 249.163 5.84637 194.585 5.84637 127.5C5.84637 60.4202 60.4222 5.84637 127.505 5.84637C194.583 5.84637 249.157 60.4202 249.157 127.5C249.157 194.585 194.583 249.163 127.505 249.163Z" fill="#464342"/>
</g>
<defs>
<clipPath id="clip0">
<rect width="256" height="255" fill="white"/>
</clipPath>
</defs>
</svg>

<?xml version="1.0" encoding="utf-8"?>
<!-- Generator: Adobe Illustrator 26.0.1, SVG Export Plug-In . SVG Version: 6.00 Build 0)  -->
<svg version="1.1" id="Layer_1" xmlns="http://www.w3.org/2000/svg" xmlns:xlink="http://www.w3.org/1999/xlink" x="0px" y="0px"
	 viewBox="0 0 256 255" style="enable-background:new 0 0 256 255;" xml:space="preserve">
<style type="text/css">
	.st0{clip-path:url(#SVGID_00000067211512937822692080000011778954134291861663_);}
	.st1{fill:#EAEAEA;}
</style>
<g>
	<defs>
		<rect id="SVGID_1_" width="256" height="255"/>
	</defs>
	<clipPath id="SVGID_00000068656586397324148000000006338197822831814280_">
		<use xlink:href="#SVGID_1_"  style="overflow:visible;"/>
	</clipPath>
	<g style="clip-path:url(#SVGID_00000068656586397324148000000006338197822831814280_);">
		<path class="st1" d="M18.1,127.5c0,43.3,25.2,80.7,61.6,98.4L27.6,83C21.5,96.6,18.1,111.6,18.1,127.5z M201.3,122
			c0-13.5-4.9-22.9-9-30.2c-5.5-9-10.7-16.6-10.7-25.6c0-10.1,7.6-19.4,18.4-19.4c0.5,0,0.9,0.1,1.4,0.1
			C181.9,29,156,18.1,127.5,18.1c-38.2,0-71.8,19.6-91.4,49.3c2.6,0.1,5,0.1,7,0.1c11.4,0,29.2-1.4,29.2-1.4c5.9-0.3,6.6,8.3,0.7,9
			c0,0-5.9,0.7-12.5,1l39.8,118.5l23.9-71.8l-17-46.7c-5.9-0.3-11.5-1-11.5-1c-5.9-0.3-5.2-9.4,0.7-9c0,0,18.1,1.4,28.8,1.4
			c11.4,0,29.2-1.4,29.2-1.4c5.9-0.3,6.6,8.3,0.7,9c0,0-5.9,0.7-12.5,1l39.5,117.6l10.9-36.5C197.7,142.2,201.3,131.3,201.3,122z
			 M129.4,137.1l-32.8,95.4c9.8,2.9,20.2,4.5,30.9,4.5c12.7,0,25-2.2,36.3-6.2c-0.3-0.5-0.6-1-0.8-1.5L129.4,137.1z M223.5,75
			c0.5,3.5,0.7,7.2,0.7,11.2c0,11.1-2.1,23.6-8.3,39.2L182.5,222c32.5-19,54.4-54.2,54.4-94.5C236.9,108.5,232,90.6,223.5,75z
			 M127.5,0C57.2,0,0,57.2,0,127.5C0,197.8,57.2,255,127.5,255c70.3,0,127.5-57.2,127.5-127.5C255,57.2,197.8,0,127.5,0z
			 M127.5,249.2c-67.1,0-121.7-54.6-121.7-121.7C5.8,60.4,60.4,5.8,127.5,5.8c67.1,0,121.7,54.6,121.7,121.7
			C249.2,194.6,194.6,249.2,127.5,249.2z"/>
	</g>
</g>
</svg>
